rospo-dark/24x24/actions/distribute-horizontal-node.svg

<svg height="24" viewBox="0 0 24 24" width="24" xmlns="http://www.w3.org/2000/svg"><path d="m3.0039062 0v10h-1.9980468v1.994141h-.50000002-.5v1h .5.50000002v2.005859h1.5410156c-.22153 1.4595-.4401306 2.905987-.7128906 4.179688-.39883 1.8622-.9630569 3.337187-1.6542969 3.929687a.49977.49988 0 0 0 -.1796875.396484.49977.49988 0 0 0  .83007812.363282c1.05799998-.907 1.56932188-2.551469 1.98242188-4.480469.2927-1.367.5178937-2.879672.7460938-4.388672h2.4453124v-2.005859h3v2.005859h1.4394528c.000656.004.001253.007699.001953.011719.346411 2.1099.798784 4.22765 1.683594 5.90625s2.283138 2.933412 4.335938 3.070312c.81496.054 1.540872-.247803 2.076172-.783203.53523-.5354.906005-1.274444 1.197265-2.152344.538-1.62.798766-3.747734 1.009766-6.052734h2.251953v-2.005859h.996094v-.5-.5h-.5-.496094v-1.994141h-1.816406c.10374-1.1091.21885-2.2059531.375-3.2519531a.49977.49988 0 0 0 -.558594-.5839844v-6.1640625h-1v2.5 7.5h-1.998047v1.994141h-4v-1.994141h-2v-7.5-2.5h-1v2.5 7.5h-.339844c-.068-.3545-.135843-.7079563-.214843-1.0351562-.205-.8494-.4532472-1.598125-.8105472-2.203125-.3572001-.605-.8546719-1.0852-1.5136719-1.25-.8371-.2092001-1.6131407-.1082875-2.2441407.2578124-.631.3662001-1.1057281.9630938-1.4863281 1.6835938-.1445.2735-.2670719.5828781-.3886719.8925781v-5.8457031-2.5zm1 2.5 2 1.53125v-1.03125h3v1l1.9980468-1.5-1.9980468-1.5v1h-3v-.96875zm7.9980468 0 2 1.53125v-1.03125h4v1l1.998047-1.5-1.998047-1.5v1h-4v-.96875zm-4.5664061 3.90625c.1388.011672.2859525.0363469.4453125.0761719.34059.085.6231543.3243093.8964844.7871093.27332.4629001.5062687 1.1314875.6992187 1.9296876.0602.2486999.1121156.5291812.1660156.8007812h-.6386719v1.994141h-3v-1.994141h-1.4882812c.2181-.8002.4649188-1.5179781.7617188-2.0800781.3254-.616.6957156-1.0485563 1.1035156-1.2851563.3058-.1776.6382875-.2635156 1.0546875-.2285156zm6.5664061 6.587891h4v2.005859h1.740235c-.209161 2.2488-.473202 4.297381-.951172 5.738281-.26264.7917-.590032 1.392666-.957032 1.759766-.367.3672-.746404.529187-1.302734.492187-1.6955-.113-2.733231-1.045309-3.519531-2.537109-.767-1.455-1.214735-3.430125-1.552735-5.453125h2.542969z" fill="#d3dae3"/></svg>

<svg xmlns="http://www.w3.org/2000/svg" width="24" height="24" viewBox="0 0 24 24">
 <defs>
  <style id="current-color-scheme" type="text/css">
   .ColorScheme-Text { color:#d3dae3; } .ColorScheme-Highlight { color:#5294e2; }
  </style>
 </defs>
 <path style="fill:currentColor" class="ColorScheme-Text" d="M 3.0039062 0 L 3.0039062 10 L 1.0058594 10 L 1.0058594 11.994141 L 0.50585938 11.994141 L 0.005859375 11.994141 L 0.005859375 12.994141 L 0.50585938 12.994141 L 1.0058594 12.994141 L 1.0058594 15 L 2.546875 15 C 2.325345 16.4595 2.1067444 17.905987 1.8339844 19.179688 C 1.4351544 21.041888 0.8709275 22.516875 0.1796875 23.109375 A 0.49977 0.49988 0 0 0 0 23.505859 A 0.49977 0.49988 0 0 0 0.83007812 23.869141 C 1.8880781 22.962141 2.3994 21.317672 2.8125 19.388672 C 3.1052 18.021672 3.3303937 16.509 3.5585938 15 L 6.0039062 15 L 6.0039062 12.994141 L 9.0039062 12.994141 L 9.0039062 15 L 10.443359 15 C 10.444015 15.004 10.444612 15.007699 10.445312 15.011719 C 10.791723 17.121619 11.244096 19.239369 12.128906 20.917969 C 13.013716 22.596569 14.412044 23.851381 16.464844 23.988281 C 17.279804 24.042281 18.005716 23.740478 18.541016 23.205078 C 19.076246 22.669678 19.447021 21.930634 19.738281 21.052734 C 20.276281 19.432734 20.537047 17.305 20.748047 15 L 23 15 L 23 12.994141 L 23.996094 12.994141 L 23.996094 12.494141 L 23.996094 11.994141 L 23.496094 11.994141 L 23 11.994141 L 23 10 L 21.183594 10 C 21.287334 8.8909 21.402444 7.7940469 21.558594 6.7480469 A 0.49977 0.49988 0 0 0 21 6.1640625 L 21 0 L 20 0 L 20 2.5 L 20 10 L 18.001953 10 L 18.001953 11.994141 L 14.001953 11.994141 L 14.001953 10 L 12.001953 10 L 12.001953 2.5 L 12.001953 0 L 11.001953 0 L 11.001953 2.5 L 11.001953 10 L 10.662109 10 C 10.594109 9.6455 10.526266 9.2920437 10.447266 8.9648438 C 10.242266 8.1154438 9.9940188 7.3667188 9.6367188 6.7617188 C 9.2795187 6.1567188 8.7820469 5.6765188 8.1230469 5.5117188 C 7.2859469 5.3025187 6.5099062 5.4034313 5.8789062 5.7695312 C 5.2479062 6.1357313 4.7731781 6.732625 4.3925781 7.453125 C 4.2480781 7.726625 4.1255062 8.0360031 4.0039062 8.3457031 L 4.0039062 2.5 L 4.0039062 0 L 3.0039062 0 z M 4.0039062 2.5 L 6.0039062 4.03125 L 6.0039062 3 L 9.0039062 3 L 9.0039062 4 L 11.001953 2.5 L 9.0039062 1 L 9.0039062 2 L 6.0039062 2 L 6.0039062 1.03125 L 4.0039062 2.5 z M 12.001953 2.5 L 14.001953 4.03125 L 14.001953 3 L 18.001953 3 L 18.001953 4 L 20 2.5 L 18.001953 1 L 18.001953 2 L 14.001953 2 L 14.001953 1.03125 L 12.001953 2.5 z M 7.4355469 6.40625 C 7.5743469 6.417922 7.7214994 6.4425969 7.8808594 6.4824219 C 8.2214494 6.5674219 8.5040137 6.8067312 8.7773438 7.2695312 C 9.0506638 7.7324313 9.2836125 8.4010187 9.4765625 9.1992188 C 9.5367625 9.4479187 9.5886781 9.7284 9.6425781 10 L 9.0039062 10 L 9.0039062 11.994141 L 6.0039062 11.994141 L 6.0039062 10 L 4.515625 10 C 4.733725 9.1998 4.9805438 8.4820219 5.2773438 7.9199219 C 5.6027438 7.3039219 5.9730594 6.8713656 6.3808594 6.6347656 C 6.6866594 6.4571656 7.0191469 6.37125 7.4355469 6.40625 z M 14.001953 12.994141 L 18.001953 12.994141 L 18.001953 15 L 19.742188 15 C 19.533027 17.2488 19.268986 19.297381 18.791016 20.738281 C 18.528376 21.529981 18.200984 22.130947 17.833984 22.498047 C 17.466984 22.865247 17.08758 23.027234 16.53125 22.990234 C 14.83575 22.877234 13.798019 21.944925 13.011719 20.453125 C 12.244719 18.998125 11.796984 17.023 11.458984 15 L 14.001953 15 L 14.001953 12.994141 z"/>
</svg>
